-----BEGIN PGP PUBLIC KEY BLOCK-----

mQGNBGfeJOIBDADF0P+wY8d6xbPIOps8ond3glh4u9PXuL3o9TiyC6zopFCwc//L
GjPqKEgseyEzjgyTwU8HJORt+N0Kohn6N2ln8GTv1neqVf2mBMgRucvFLcRSFhgU
ILtJ3r5DLHrITu6JFJwiMyVq1fZQg4XWAAyn9ctAcxW+pjC8x4WmyNsUPUHZN4/P
WEK3kmawx6y4i8+1yH1ebzy16GRVBD5DfAnDzJumyah/HFvr4gXvvUKybIo4pAts
6i2Hffg5A8GAGBRTrKH6Oj47fbVO/2ojy1rj3gq5sFvB7qsFtdgXS2NelOa6mYEa
bsYEH9T13Rsk8Si7OQ83psOG39zXR/2FxgenfO6yrRCX3/2edTDE8YV9Tm0oPRaj
Qlhpx5IUHH9scEqgntG5PPzuT0kG3nsyDkmvensOLOtGgST/VuJduKfSjQbTRJwJ
YCoQqwVAMGQR8zBieCUqDrnIZO8ZvJ866YNfdh6SJPELx2+JSBFJpdNXSl0Mn8QD
UYqQ2eehX1FACo0AEQEAAbQgS2VuZ28gVE9EQSA8c2t5cGVuY2lsQGdtYWlsLmNv
bT6JAdQEEwEIAD4WIQTYeNSoI+rnMbcp0ajSFRF4oSPJfwUCZ94k4gIbAwUJA8Jn
AAULCQgHAgYVCgkICwIEFgIDAQIeAQIXgAAKCRDSFRF4oSPJf6sHC/9shNMhGoXW
781ZVTUJnwSvHz5rPde7lpJEkSkL61Q+Ahpk9RXk829SMvE1KeVlSqOR6zvhMui5
hveF8LYrqpQa7FJTm9NlRv6BeuUFPQU4D4BuIgg0PQZMayshx/DRvnN6bQhoQkBO
qGWKhwBjlj2ECkx3nQ7rx1WUg7XHwe99zmpBVSs2PBilJ10K7go/kdSgxpTURV1O
pfQWZ1hQwIQ/FdtrQAClv6saLxDsg70CttdhmXmT9T0eI3qKRyGrAS+GdNgoYENr
QvRPKmIwa/sChZBUJTMWpHrIo2Qhz9iDRDpsEQAtS/LFxBtGZ/KyYG66DHQhBxNq
fu7Uj6qS1kGxhuHv8ciFCKwuQUjX8hGwi8jxqOxKtAN33wlWxPU08ZlnNaJ32TGy
fBmvaOSM0IpkH0iilQNs9kLnCA057kq56uXyg6WKPZPmVejPxYDz6xMv+vBCMZdH
ScIWU3M/1XJyXWqaazwrl1iNHtcD7QDyip7Fzc1uzNJ++E1SDW1aLAa5AY0EZ94k
4gEMAMUh5TL/MKjm+WAQhyPWk7YeoE0sAUopa19PjpXFfc4Lxo+w3yzj5f436+3U
BEUjlZLS29LnotuaVzm1/aKQ0X/5Dcb2263NxrcMwChaoUWdNoihgQT8M04BdEA3
2wPfC0q+IOwb4ifjd/z2ynhs7T/zLpgx7bXSnvRltWQLFjBsyL5TEusUBwG32srL
Z+tGUsi2laF4Al024JIX+5n7OPTHB3lFNd5lSmH/OtXV+Le0LxM4R87JgzRpSmiz
W97ZdLWMcUD+mcEsX+UVvxpO5gV+rbWeo8Ikzwmd9L/kJNfmOSi1H22O4xVQQYjS
l8DpnO/SS6oXGTe5tcfRD3hWBwwbCmom5kh4Qp4J02mpsV8/SbehP+Vyx9zyN86H
vVEOaR+HhIZrAvCkltY22fhfWO/fJgWGFb9xAaLKKki3VAM63L76IuTMh9GWOG8y
DeazO6ZMuMOKy+N1frnnfhtTxpMa4aIzWLcTXMkNQ5Na4gRgFSU5lpwIu6BtDqVC
OnVvYQARAQABiQG8BBgBCAAmFiEE2HjUqCPq5zG3KdGo0hUReKEjyX8FAmfeJOIC
GwwFCQPCZwAACgkQ0hUReKEjyX+VXwwAv/tNnVZKu4FJu3PKZvogoh1gJIRvf3PQ
9JYdXT9TjChUSgKM/hrzmXBJaYeWLlvcsgutNBxGU+QyvMdmhTjsfC8I7R8yzJhe
8G/fH55qvsvHH84W+ha2IV9Wlo+KnhHXpsIqt8HDGfUADQpREJ+5JoVVqvrzpuuc
Ek86w7//olSl68AhH1E/ANsv1Jgc5YeQTMycoGV/ojYe1h2VokCgI9eS6YCUSJSP
W3uRK2zI1Mnt4CUVjZOhaXOyqN1VbFIWwsBs+pnWJ/brNEtjlBWiL9P66ikq5Xtg
WD21uwPXacNDrhzKuc3Snsyt344vApQcpuNnMdCY8rlQ54wlpRt6OZ0GW4tpzlWx
DzDdDWUqYZ8fXUWqLZBqNdfF/faiKWcYLVLxSv+AjXrYBzjsiZRzk0pIRi3YiAbI
Civ3wjqUGt1R8SCO2F8XzDKT8bHhPUQlqf5nujd5xb81cD0SU8twNINnVCD3nc/m
h3Vr0dbJRKF6QoekO3w3iQ7YhpdNkX7f
=QQ7B
-----END PGP PUBLIC KEY BLOCK-----
