-----BEGIN PGP PUBLIC KEY BLOCK-----

mQINBGQNzIwBEACcv9euTMRbTyxdLRn933659qBxbOvpEnqp3Upgb83R6Ulk7d2D
CSZkx343DcjhL2kUt7y3jARAJgGmDo8NXiEaTiAQMFuN6mM/B3+YgxWXSaIXZzOj
28VJ31b2xC+y5Jbvktuh93nntr1LBBnXGHj75aSURdzV9zx/VSzSDR8/QPwpOsnY
TzaOdjEz94hcihYBUISi/vTDJlxa+7OR4YAAOFvbHzBd+JfmFINsj5FcG97mrusP
zieO970QPWZG6ywzfmx1R4BF29kLBFu3Xep+Mueb3vvg9dAiVndQi6rYvMxZlHgj
97j2tnK5grcBDtS0XFw3LYg8AY/KXFM3xFS//jF1BrHnnk5c5h9lIo9+vOpcvlJQ
BgrC8VHn/kkWHKzIZqi2esLvpW96RaSTEKcUv+kmEedH/+kZi3TeuUR8Vx00+syu
j2FaA4uutiGArsrNO25zVRJzS0L1j1UxYKb5GfD6Pt1eLkaW490IriViupnkDNgb
RC8wEeczDArTYUPpNn6VJ6zN94dR9whDOG0EENvXKSEET2MhmtJh7HY0nUTdDjRJ
wGU6+SwGkqIqI8fjuiCrE5jE5zdf3vf1UUG2Mh2VfJnUrbOMIhM4MiPH7OliEzIN
lPauiqBkMbXl1hz684WhfKsAxVIujOdCQ2hMk/IdR6m1jDMAc4FqXU7awQARAQAB
tClQSFBTdGFuIEJvdCA8b25kcmVqK3BocHN0YW5ib3RAbWlydGVzLmN6PokCUQQT
AQgAOxYhBMp8LHowyOjhJ0qEdlHGcwX/wuXABQJkDcyMAhsDBQsJCAcCAiICBhUK
CQgLAgQWAgMBAh4HAheAAAoJEFHGcwX/wuXA9UcP/1c6geFunL3CKXq7PlnORYLX
82oMyNT6w3T/ovoPGucZ3LoGX17R6M3Cye5RkAfD/6PxwbAUmkZafOjpsb1wcTOW
FpBbD1bivfUBL5Lz/NoUHHN3gtu585L2WmsCmJCxS3Kwp2GQMUa2m1oaqxtGn+xQ
hxnIZfAkxZjxNWOUpZwjpn3w6WzDIzpQRS++SoPcD5J2hCL4yXpMQCp79IX0uMU4
/Fh19LA7QtinLlAavrtDyw9PuG9C+Bcb3ENoR5bxDSK45vMuD7xV4sVA7GBdwGuF
pngQcqnb7D2CZl6T+J+0+Qd6u0m4i9Wt1EGPBy3qzyWV5tdeachVzq30f3ZudD/0
dUeWwySVxCam5tqj2lQCAJu7+YqweXdSJSwYAHp7RZXxOc0DihZsuId6mCFYeEc9
sk/hq91WkPwA3MGC28GXk877lUTIOH+UKHfCr4QgVZrq1xtPaA422IbhVpI2LQsH
hGEJ1D6mJpUsqjfa/3SSHsMrmtd183L9aB0FbVboRgXhhWIqq1UXxcdqvnzCPaue
dYj2gITFb9irAYYsziAGvQs2+qjgG/0yR7SIG53TScTCKDMqTYZfqAdNgnbjt32j
YkOFX0ECstgTvXlkhe3n2hKMLNNk+1ksaoumPHIX/gUW4ipYXjENGsST+RpgGNRl
g4/I+b00uTKlFPXKeOphuQINBGQNzIwBEADPzv3dQEKlylOh4LSq3f0wR1tLhhdC
HWiYM5B5psYcRuC4b0yWRZ3bU3431GdfM7oYqM6iCQKACpRTFWEtcQvKpxuSqqs1
S46rIuYzEJTe2zK++NZOc/l+29CQofaxpSdigI9U0gHWo0NMoQpLIikrn8po+eyC
q7K2jhG1ODMb+9+DDKtTn4g08Q/Yh8WPDT7U026Vs/7QXed7L/ZGEoZRuNF0ld7l
AqfZE1ptLnQC/2HBq/ED7Zhw5i8NjbUGcT4dEoiyTtAXyfSBPVS2sk626JAOsYu9
5ZwjxHiHSM7+CAzHrEPQj4RsHygELY553SOgaAXETlAT96KpY4cowV1B8Nxk1G+y
1Jj6uUX6IQjy9DQm2+nFGYssuUll+z8Vpzk0IYQY/kRxV14mZBRXmiiDoUk76G9F
sCYJu8fqEXFT/ozoTAmuxMzxS3ailRAJGpJWfQuRyfZOHm5MRKcVQD7JZ0/XAqth
+tBBt2hNaLMv+RacgYY9+KkrjgOt7XaSDjR7VkM5H+eRQq20JkANBEIZLxVTE3+7
XQkRo/FGbgvkH38r9Y412dTYLt6HMqL8Zj/TzkOxq46PEgoOqq4ScE3aXmX5K/nF
CgVrBREqLhpja2JWuIJw5agj/9o5OTBAtehjGwCrCDnHEHcDfitPtpthGQIkp/RU
cIfHV5kpm5l8lwARAQABiQI2BBgBCAAgFiEEynwsejDI6OEnSoR2UcZzBf/C5cAF
AmQNzIwCGwwACgkQUcZzBf/C5cAH6g/+PFwJDt7k7N36900HXaHKBMoHkfXRX7sD
Mz/CDJYhkOFg9DSVTIsRUT1vTRc1cwayHbKKJPVKCr8lffC7thOOs1/1gM7I+wA7
tXFp95p/IU9qih7oxcT1vljS7aBfJVo+1X+vWE6OagJRpC53yM80RzVC+p9BD1GX
MZ72NKNuYkFBNcGxz1Yp+UUAMQOFTLI1BPAadN+s3o9nFcZaYkT3iG1dUzLnxIcr
V37Kh9bgYSQM8oU2T7mv+LeywL4Gmv7tifVycRb88qXuxrA+Pn00aUX0+8Jr5+/o
pXlISrQ1bdp68QQLX2R3ah6hQbVi8+4B/SswlbIXb7R1Xz6Saskfmzd8e2K4AE1f
PzZefBpcR/ZtkX9RqqjfV1QUbhb/rmgDNJK3ERcg1f214MGtLtqYNrYwwpPEQApp
R1Fd7U6ICcoSf/hwjwBpQlV1DDvghjxSE/9GL3Fq7Lej+e7CxTQs8Etpxru46A8Y
txpLwimG7FCY0Ox07lVp2uWxqFHJ03T9QyNAuRNaVjbX4elKTznCC0tj7Ax+OVhp
Or8o9kLot2uR/uwE3ELRBrreyPRuQPlt0CE5AxXStg+7o7mMwA27GuU37x/9JVQG
kfg9U7QRF0kz/8tr3uqpd60gZQemLLVuJ41L84VMMX1Qf1ArOz8Nf56MqgAjx0m0
7otHNc726Aw=
=COlH
-----END PGP PUBLIC KEY BLOCK-----
